X:505
T:
R:vals
S:Ur en gammal notbok i Gotlands fornsal.
O:Gotland, Visby
M:3/4
L:1/8
K:Bb
f2|d2 dc d2|c2 cB c2|B2 d2 e2|f4 g2|e2 ed e2|d2 dc d2|cdcBAG|F4 f2|
d2 dc d2|c2 cB c2|B2 d2 e2|f4 g2|e2 ed g2|F2 G2 A2|B2 Bcdc|B4::B2|
g2 gf g2|e2 ed e2|c2 c2 c2|d4 B2|e2 d2 c2|b2 a2 g2|f2 e2 d2|c4 f2|
d2 dc d2|c2 cB c2|B2 d2 e2|f4 g2|e2 ed e2|F2 G2 A2|B2 Bcdc|B4:|

